X:55
T:[German Tune #9]
T:John Malchair's Third Collection of Tunes
%%VWML:Malchair-3619-p55
F:https://www.vwml.org/record/Malchair/3619/p55
F:www.vwml.org/topics/historic-dance-and-tune-books/Malchair
Z:Steve Mansfield Feb 2020
M:3/4
L:1/4
K:G
d | {de}f.d.d | {fg}a.f.f | {ef}g.e.e | {e}f.d.d | {de}f.d.d | {fg}a.f.f | {e/f/}ge(e/<f/) | dz :|
|: f | {ef}g.e.e | {fg}a.f.f | {ef}g.e.e | {fg}a.f.f | {de}f.d.d | {fg}a.f.f | {e/f/}ge(e/<f/) | dz :|
|: A | A2d | {c}B>AG | .F.E.D | .C.D.E | A2d | {c}B>AG | F>GE | Dz :|
|: (c/d/) | (e/f/g/f/g/f/) | gA{a}g/f/ | (g/f/g/f/g/f/) | gzA | A2d | {c}B>AG | F>GE | Dz "Da Capo il primo":|
W:
T:[German Tune #10]
T:John Malchair's Third Collection of Tunes
%%VWML:Malchair-3619-p55
F:https://www.vwml.org/record/Malchair/3619/p55
F:www.vwml.org/topics/historic-dance-and-tune-books/Malchair
Z:Steve Mansfield Feb 2020
M:2/4
L:1/8
K:D
d/e/ | ff/a/ gg/b/ | e3 c/A/ | df (3fef | eg (3gfg | ff/a/ gg/b/ | e3 c/A/ | d/f/a/f/ b/g/e/c/ | d3 :|
|: dc | dd'c'b | a/b/a/g/ f2 | g/a/b/a/ g/f/e/d/ | c/d/e/c/ Ad/e/ | \
        ff/a/ gg/b/ | e3 c/A/ | d/f/a/f/ b/g/e/c/ | d3 :|

%abc-2.1

%
% David,
%   Joining the two tunes on page 60 confuses both abcm2ps (printout) and abc2midi (playback).
% 
%   Also, the Silver Faulken on page 61 confirms that stemless black notes are half notes.
%           -- Eric
%

